backend/static/cubane/backend/img/logos/github.svg

<svg clip-rule="evenodd" fill-rule="evenodd" stroke-linejoin="round" stroke-miterlimit="1.41421" viewBox="0 0 2005 542" xmlns="http://www.w3.org/2000/svg"><g fill="#0e0d0d" fill-rule="nonzero" transform="scale(4.16667)"><path d="m92.497 55.713h-40.357c-1.041 0-1.886.845-1.886 1.887v19.73c0 1.041.845 1.889 1.886 1.889h15.743v24.513s-3.535 1.205-13.307 1.205c-11.531 0-27.637-4.213-27.637-39.631 0-35.425 16.771-40.086 32.518-40.086 13.629 0 19.502 2.399 23.238 3.556 1.174.359 2.26-.81 2.26-1.851l4.502-19.064c0-.488-.165-1.075-.721-1.473-1.518-1.083-10.775-6.263-34.16-6.263-26.942 0-54.576 11.462-54.576 66.562 0 55.102 31.639 63.313 58.301 63.313 22.076 0 35.469-9.434 35.469-9.434.552-.305.611-1.076.611-1.43v-61.536c0-1.042-.843-1.887-1.884-1.887z"/><path d="m300.475 6.728c0-1.05-.832-1.897-1.873-1.897h-22.723c-1.038 0-1.882.847-1.882 1.897 0 .004.006 43.912.006 43.912h-35.419v-43.912c0-1.05-.836-1.897-1.875-1.897h-22.722c-1.034 0-1.877.847-1.877 1.897v118.902c0 1.049.843 1.903 1.877 1.903h22.722c1.039 0 1.875-.854 1.875-1.903v-50.859h35.419s-.062 50.855-.062 50.859c0 1.049.843 1.903 1.882 1.903h22.777c1.041 0 1.873-.854 1.875-1.903z"/><path d="m135.376 22.33c0-8.182-6.561-14.793-14.653-14.793-8.085 0-14.65 6.611-14.65 14.793 0 8.174 6.565 14.804 14.65 14.804 8.092 0 14.653-6.63 14.653-14.804z"/><path d="m133.751 100.548c0-3.046 0-54.885 0-54.885 0-1.042-.841-1.894-1.88-1.894h-22.651c-1.039 0-1.969 1.071-1.969 2.113v78.635c0 2.311 1.44 2.998 3.304 2.998h20.408c2.239 0 2.788-1.099 2.788-3.035 0-4.215 0-20.727 0-23.932z"/><path d="m386.832 43.947h-22.549c-1.034 0-1.876.853-1.876 1.902v58.301s-5.728 4.191-13.859 4.191c-8.13 0-10.288-3.689-10.288-11.65 0-7.97 0-50.842 0-50.842 0-1.049-.84-1.902-1.875-1.902h-22.885c-1.033 0-1.879.853-1.879 1.902v54.692c0 23.646 13.179 29.431 31.309 29.431 14.873 0 26.865-8.217 26.865-8.217s.571 4.33.829 4.844c.259.512.932 1.029 1.659 1.029l14.559-.064c1.033 0 1.879-.854 1.879-1.898l-.007-79.817c0-1.049-.843-1.902-1.882-1.902z"/><path d="m439.567 108.269c-7.821-.238-13.126-3.787-13.126-3.787v-37.654s5.234-3.207 11.655-3.781c8.12-.727 15.944 1.726 15.944 21.096 0 20.425-3.531 24.456-14.473 24.126zm8.894-66.993c-12.807 0-21.518 5.714-21.518 5.714v-40.262c0-1.05-.839-1.897-1.875-1.897h-22.787c-1.036 0-1.878.847-1.878 1.897v118.902c0 1.049.842 1.903 1.881 1.903h15.81c.712 0 1.251-.367 1.649-1.01.393-.639.96-5.482.96-5.482s9.318 8.83 26.957 8.83c20.708 0 32.584-10.504 32.584-47.154 0-36.651-18.967-41.441-31.783-41.441z"/><path d="m199.058 43.758h-17.045s-.026-22.513-.026-22.518c0-.853-.439-1.279-1.424-1.279h-23.228c-.903 0-1.388.398-1.388 1.266v23.269s-11.64 2.81-12.427 3.037c-.784.228-1.361.95-1.361 1.813v14.622c0 1.052.84 1.9 1.879 1.9h11.909v35.178c0 26.129 18.328 28.697 30.696 28.697 5.651 0 12.411-1.816 13.527-2.228.675-.248 1.067-.947 1.067-1.705l.019-16.086c0-1.049-.886-1.898-1.884-1.898-.993 0-3.534.404-6.15.404-8.372 0-11.209-3.893-11.209-8.931 0-5.035-.001-33.431-.001-33.431h17.046c1.039 0 1.88-.848 1.88-1.9v-18.316c0-1.049-.841-1.894-1.88-1.894z"/></g></svg>

<?xml version="1.0" encoding="UTF-8" standalone="no"?>
<!DOCTYPE svg PUBLIC "-//W3C//DTD SVG 1.1//EN" "http://www.w3.org/Graphics/SVG/1.1/DTD/svg11.dtd">
<svg width="100%" height="100%" viewBox="0 0 2005 542" version="1.1" xmlns="http://www.w3.org/2000/svg" xmlns:xlink="http://www.w3.org/1999/xlink" xml:space="preserve" style="fill-rule:evenodd;clip-rule:evenodd;stroke-linejoin:round;stroke-miterlimit:1.41421;">
    <g transform="matrix(4.16667,0,0,4.16667,0,0)">
        <path d="M92.497,55.713L52.14,55.713C51.099,55.713 50.254,56.558 50.254,57.6L50.254,77.33C50.254,78.371 51.099,79.219 52.14,79.219L67.883,79.219L67.883,103.732C67.883,103.732 64.348,104.937 54.576,104.937C43.045,104.937 26.939,100.724 26.939,65.306C26.939,29.881 43.71,25.22 59.457,25.22C73.086,25.22 78.959,27.619 82.695,28.776C83.869,29.135 84.955,27.966 84.955,26.925L89.457,7.861C89.457,7.373 89.292,6.786 88.736,6.388C87.218,5.305 77.961,0.125 54.576,0.125C27.634,0.125 0,11.587 0,66.687C0,121.789 31.639,130 58.301,130C80.377,130 93.77,120.566 93.77,120.566C94.322,120.261 94.381,119.49 94.381,119.136L94.381,57.6C94.381,56.558 93.538,55.713 92.497,55.713Z" style="fill:rgb(14,13,13);fill-rule:nonzero;"/>
        <path d="M300.475,6.728C300.475,5.678 299.643,4.831 298.602,4.831L275.879,4.831C274.841,4.831 273.997,5.678 273.997,6.728C273.997,6.732 274.003,50.64 274.003,50.64L238.584,50.64L238.584,6.728C238.584,5.678 237.748,4.831 236.709,4.831L213.987,4.831C212.953,4.831 212.11,5.678 212.11,6.728L212.11,125.63C212.11,126.679 212.953,127.533 213.987,127.533L236.709,127.533C237.748,127.533 238.584,126.679 238.584,125.63L238.584,74.771L274.003,74.771C274.003,74.771 273.941,125.626 273.941,125.63C273.941,126.679 274.784,127.533 275.823,127.533L298.6,127.533C299.641,127.533 300.473,126.679 300.475,125.63L300.475,6.728Z" style="fill:rgb(14,13,13);fill-rule:nonzero;"/>
        <path d="M135.376,22.33C135.376,14.148 128.815,7.537 120.723,7.537C112.638,7.537 106.073,14.148 106.073,22.33C106.073,30.504 112.638,37.134 120.723,37.134C128.815,37.134 135.376,30.504 135.376,22.33Z" style="fill:rgb(14,13,13);fill-rule:nonzero;"/>
        <path d="M133.751,100.548C133.751,97.502 133.751,45.663 133.751,45.663C133.751,44.621 132.91,43.769 131.871,43.769L109.22,43.769C108.181,43.769 107.251,44.84 107.251,45.882C107.251,45.882 107.251,111.927 107.251,124.517C107.251,126.828 108.691,127.515 110.555,127.515C110.555,127.515 120.223,127.515 130.963,127.515C133.202,127.515 133.751,126.416 133.751,124.48C133.751,120.265 133.751,103.753 133.751,100.548Z" style="fill:rgb(14,13,13);fill-rule:nonzero;"/>
        <path d="M386.832,43.947L364.283,43.947C363.249,43.947 362.407,44.8 362.407,45.849L362.407,104.15C362.407,104.15 356.679,108.341 348.548,108.341C340.418,108.341 338.26,104.652 338.26,96.691C338.26,88.721 338.26,45.849 338.26,45.849C338.26,44.8 337.42,43.947 336.385,43.947L313.5,43.947C312.467,43.947 311.621,44.8 311.621,45.849C311.621,45.849 311.621,76.896 311.621,100.541C311.621,124.187 324.8,129.972 342.93,129.972C357.803,129.972 369.795,121.755 369.795,121.755C369.795,121.755 370.366,126.085 370.624,126.599C370.883,127.111 371.556,127.628 372.283,127.628L386.842,127.564C387.875,127.564 388.721,126.71 388.721,125.666L388.714,45.849C388.714,44.8 387.871,43.947 386.832,43.947Z" style="fill:rgb(14,13,13);fill-rule:nonzero;"/>
        <path d="M439.567,108.269C431.746,108.031 426.441,104.482 426.441,104.482L426.441,66.828C426.441,66.828 431.675,63.621 438.096,63.047C446.216,62.32 454.04,64.773 454.04,84.143C454.04,104.568 450.509,108.599 439.567,108.269ZM448.461,41.276C435.654,41.276 426.943,46.99 426.943,46.99L426.943,6.728C426.943,5.678 426.104,4.831 425.068,4.831L402.281,4.831C401.245,4.831 400.403,5.678 400.403,6.728L400.403,125.63C400.403,126.679 401.245,127.533 402.284,127.533C402.286,127.533 418.089,127.533 418.094,127.533C418.806,127.533 419.345,127.166 419.743,126.523C420.136,125.884 420.703,121.041 420.703,121.041C420.703,121.041 430.021,129.871 447.66,129.871C468.368,129.871 480.244,119.367 480.244,82.717C480.244,46.066 461.277,41.276 448.461,41.276Z" style="fill:rgb(14,13,13);fill-rule:nonzero;"/>
        <path d="M199.058,43.758L182.013,43.758C182.013,43.758 181.987,21.245 181.987,21.24C181.987,20.387 181.548,19.961 180.563,19.961L157.335,19.961C156.432,19.961 155.947,20.359 155.947,21.227L155.947,44.496C155.947,44.496 144.307,47.306 143.52,47.533C142.736,47.761 142.159,48.483 142.159,49.346L142.159,63.968C142.159,65.02 142.999,65.868 144.038,65.868L155.947,65.868C155.947,65.868 155.947,81.162 155.947,101.046C155.947,127.175 174.275,129.743 186.643,129.743C192.294,129.743 199.054,127.927 200.17,127.515C200.845,127.267 201.237,126.568 201.237,125.81L201.256,109.724C201.256,108.675 200.37,107.826 199.372,107.826C198.379,107.826 195.838,108.23 193.222,108.23C184.85,108.23 182.013,104.337 182.013,99.299C182.013,94.264 182.012,65.868 182.012,65.868L199.058,65.868C200.097,65.868 200.938,65.02 200.938,63.968L200.938,45.652C200.938,44.603 200.097,43.758 199.058,43.758Z" style="fill:rgb(14,13,13);fill-rule:nonzero;"/>
    </g>
</svg>
